X: 134
T:Three Crowdeys In A Day. HA.133
M:C
L:1/4
Q:120
S:Henry Atkinson's original MS,Hartburn,N'umberland,1694.
O:England
A:Hartburn,Northumberland
N:"Crowdey once, crowdey twice,three crowdeys in a day, if ye crowdey any
N:more, ye'll crowdey all the ......(illegible) away."
H:1/4
Z:vmp.Chris Partington.Jan.2004
K:F
FA c2|FA f2|FA cf|(d/c/)(B/A/) G2|!
FA c2|FAf>g|a/g/f/d/ f/d/c/A/|c/A/G/F/ G2||!
f2 f/g/a|cA c2|f2 f/g/a|cAG2|!
f2 f/g/a|cAf>g|a/g/f/d/ f/d/c/A/|c/A/G/F/ G2|]
